X: 1
T: a Lovely Madness
C: Se\'an \'Og Graham
S: From the Roaring Jelly collection and several recordings online.
R: reel
M: C|
L: 1/8
K: Am
z |\
"Am"A,E (3EEE "Dm"DEFD | "Am"EDCE "E7"DCB,C | "Am"A,E (3EEE "Dm"DEFD | "E"EAA^G "Am"AEAB |
"Am"c3A "G"BAGB | "Am"AE (3EEE "Dm"FD (3DDD | "Am"DEEF "Em"EDB,D | "E7"C2B,C "Am"A,3 ||
|:"G7"B, |\
"C"C2EC GCEC | "Dm"D2FD ADFD | "Em"E2GE cEGE | "F"F2AF dFAF |
"Am"e3d cBAG | AE (3EEE "Dm"FD (3DDD | "Am"DEEF "Em"EDB,D- | "E7"DCB,C "Am"A,3 :|
